fs/desktop_keyboard_16_regular.svg

<svg viewBox="0 0 16 16" fill="none" xmlns="http://www.w3.org/2000/svg" height="1em" width="1em">
  <path d="M3 1C1.89543 1 1 1.89543 1 3V8.99729C1 10.1019 1.89543 10.9973 3 10.9973H4V12.008L3.50598 12.008C3.22984 12.008 3.00598 12.2319 3.00599 12.508C3.00599 12.7841 3.22985 13.008 3.50599 13.008L5 13.008V9.99729H3C2.44772 9.99729 2 9.54957 2 8.99729V3C2 2.44772 2.44772 2 3 2H11C11.5523 2 12 2.44772 12 3V7H13V3C13 1.89543 12.1046 1 11 1H3ZM6 9.5C6 8.67157 6.67157 8 7.5 8H13.5C14.3284 8 15 8.67157 15 9.5V13.5C15 14.3284 14.3284 15 13.5 15H7.5C6.67157 15 6 14.3284 6 13.5V9.5ZM8 13.5C8 13.7761 8.22386 14 8.5 14H12.5C12.7761 14 13 13.7761 13 13.5C13 13.2239 12.7761 13 12.5 13H8.5C8.22386 13 8 13.2239 8 13.5ZM8.5 10C8.77614 10 9 9.77614 9 9.5C9 9.22386 8.77614 9 8.5 9C8.22386 9 8 9.22386 8 9.5C8 9.77614 8.22386 10 8.5 10ZM10 11.5C10 11.2239 9.77614 11 9.5 11C9.22386 11 9 11.2239 9 11.5C9 11.7761 9.22386 12 9.5 12C9.77614 12 10 11.7761 10 11.5ZM10.5 10C10.7761 10 11 9.77614 11 9.5C11 9.22386 10.7761 9 10.5 9C10.2239 9 10 9.22386 10 9.5C10 9.77614 10.2239 10 10.5 10ZM12 11.5C12 11.2239 11.7761 11 11.5 11C11.2239 11 11 11.2239 11 11.5C11 11.7761 11.2239 12 11.5 12C11.7761 12 12 11.7761 12 11.5ZM12.5 10C12.7761 10 13 9.77614 13 9.5C13 9.22386 12.7761 9 12.5 9C12.2239 9 12 9.22386 12 9.5C12 9.77614 12.2239 10 12.5 10Z" fill="#212121"/>
</svg>

<svg viewBox="0 0 16 16" fill="none" xmlns="http://www.w3.org/2000/svg" height="1em" width="1em">
  <path d="M3 1a2 2 0 0 0-2 2v5.997a2 2 0 0 0 2 2h1v1.011h-.494a.5.5 0 0 0 0 1H5v-3.01H3a1 1 0 0 1-1-1V3a1 1 0 0 1 1-1h8a1 1 0 0 1 1 1v4h1V3a2 2 0 0 0-2-2H3Zm3 8.5A1.5 1.5 0 0 1 7.5 8h6A1.5 1.5 0 0 1 15 9.5v4a1.5 1.5 0 0 1-1.5 1.5h-6A1.5 1.5 0 0 1 6 13.5v-4Zm2 4a.5.5 0 0 0 .5.5h4a.5.5 0 0 0 0-1h-4a.5.5 0 0 0-.5.5Zm.5-3.5a.5.5 0 1 0 0-1 .5.5 0 0 0 0 1Zm1.5 1.5a.5.5 0 1 0-1 0 .5.5 0 0 0 1 0Zm.5-1.5a.5.5 0 1 0 0-1 .5.5 0 0 0 0 1Zm1.5 1.5a.5.5 0 1 0-1 0 .5.5 0 0 0 1 0Zm.5-1.5a.5.5 0 1 0 0-1 .5.5 0 0 0 0 1Z" fill="#212121"/>
</svg>
